fs/warning_24_regular.svg

<svg viewBox="0 0 24 24" fill="none" xmlns="http://www.w3.org/2000/svg" height="1em" width="1em">
  <path d="M12.9993 17.0004C12.9993 16.4489 12.5522 16.0018 12.0006 16.0018C11.4491 16.0018 11.002 16.4489 11.002 17.0004C11.002 17.552 11.4491 17.9991 12.0006 17.9991C12.5522 17.9991 12.9993 17.552 12.9993 17.0004ZM12.7401 9.14719C12.6901 8.78115 12.3761 8.49925 11.9964 8.49955C11.5822 8.49988 11.2467 8.83594 11.247 9.25015L11.2506 13.7517L11.2575 13.8535C11.3075 14.2195 11.6215 14.5014 12.0012 14.5011C12.4154 14.5008 12.7509 14.1648 12.7506 13.7505L12.747 9.24895L12.7401 9.14719ZM13.9693 3.65937C13.113 2.11157 10.8878 2.11159 10.0316 3.65942L2.28634 17.6609C1.45678 19.1605 2.5414 21 4.25518 21H19.7462C21.46 21 22.5446 19.1605 21.715 17.6608L13.9693 3.65937ZM11.3442 4.3855C11.6296 3.86956 12.3713 3.86954 12.6567 4.38548L20.4025 18.3869C20.679 18.8868 20.3175 19.5 19.7462 19.5H4.25518C3.68392 19.5 3.32238 18.8868 3.5989 18.387L11.3442 4.3855Z" fill="#212121"/>
</svg>

<svg viewBox="0 0 24 24" fill="none" xmlns="http://www.w3.org/2000/svg" height="1em" width="1em">
  <path d="M13 17a.999.999 0 1 0-1.998 0 .999.999 0 0 0 1.997 0Zm-.26-7.853a.75.75 0 0 0-1.493.103l.004 4.502.007.101a.75.75 0 0 0 1.493-.102l-.004-4.502-.007-.102Zm1.23-5.488c-.857-1.547-3.082-1.547-3.938 0L2.286 17.661c-.83 1.5.255 3.339 1.97 3.339h15.49c1.714 0 2.799-1.84 1.969-3.34l-7.746-14Zm-2.626.727a.75.75 0 0 1 1.313 0l7.745 14a.75.75 0 0 1-.656 1.114H4.256a.75.75 0 0 1-.657-1.113l7.745-14.002Z" fill="#212121"/>
</svg>
